packages/foundations/assets/icons/functional/images/notification/bell_disabled.svg

<svg xmlns="http://www.w3.org/2000/svg" width="32" height="32" fill="none"><path fill="#1A1C1F" fill-rule="evenodd" d="M16.24 2.126c-.212.132-.38.32-.45.504-.036.095-.057.761-.057 1.8 0 1.639 0 1.65-.111 1.65-.062 0-.346.048-.633.106-3.412.695-5.633 3.356-6.16 7.38-.063.475-.083 1.162-.084 2.85-.002 3.602-.083 4.762-.404 5.78-.325 1.029-.531 1.305-2.375 3.164-.872.88-1.611 1.668-1.643 1.75-.088.234-.067.568.052.814.204.42.692.63 1.174.504.219-.058 1.08-.904 11.052-10.872 5.948-5.945 10.876-10.898 10.952-11.005a1.01 1.01 0 0 0-.373-1.468c-.196-.101-.653-.111-.836-.018-.072.036-.924.857-1.895 1.824l-1.763 1.758-.505-.499a7.2 7.2 0 0 0-3.87-1.99l-.543-.095-.019-1.632c-.014-1.164-.039-1.677-.088-1.791a1.27 1.27 0 0 0-.498-.538c-.212-.11-.728-.097-.923.024m1.308 5.93c.958.119 1.785.417 2.512.906.324.218 1.167 1.015 1.167 1.103 0 .023-2.391 2.43-5.312 5.348-4.631 4.627-5.308 5.283-5.276 5.12.019-.102.055-1.602.079-3.333.045-3.302.066-3.612.322-4.612.668-2.617 2.356-4.216 4.781-4.527a7.5 7.5 0 0 1 1.727-.005m5.998 5.344-.853.867.031 2.986c.033 3.165.04 3.263.323 4.374.158.624.494 1.448.79 1.941l.259.432H12.932l-.973.974c-.535.535-.972.991-.972 1.013s.396.04.88.04h.88v.258c0 .38.184 1.043.424 1.528.498 1.007 1.533 1.822 2.648 2.085.515.122 1.377.111 1.888-.022 1.445-.379 2.547-1.492 2.885-2.914.057-.236.116-.543.132-.682l.029-.253 2.997-.001q2.999 0 3.21-.058c.444-.121.769-.525.772-.957.002-.276-.204-.637-.479-.84-1.591-1.178-2.091-1.905-2.41-3.504-.029-.147-.072-1.695-.096-3.44-.033-2.432-.062-3.305-.127-3.734-.121-.813-.15-.96-.188-.96-.018 0-.417.39-.886.867M18.7 26.276c-.085.624-.576 1.27-1.174 1.547-.281.13-.392.15-.807.15-.436 0-.515-.016-.836-.174a2.06 2.06 0 0 1-1.135-1.546l-.037-.226h4.023z"/></svg>

<svg width="32" height="32" viewBox="0 0 32 32" fill="none" xmlns="http://www.w3.org/2000/svg"><path d="M16.240 2.126 C 16.028 2.258,15.860 2.446,15.790 2.630 C 15.754 2.725,15.733 3.391,15.733 4.430 C 15.733 6.069,15.733 6.080,15.622 6.080 C 15.560 6.080,15.276 6.128,14.989 6.186 C 11.577 6.881,9.356 9.542,8.829 13.566 C 8.766 14.041,8.746 14.728,8.745 16.416 C 8.743 20.018,8.662 21.178,8.341 22.196 C 8.016 23.225,7.810 23.501,5.966 25.360 C 5.094 26.240,4.355 27.028,4.323 27.110 C 4.235 27.344,4.256 27.678,4.375 27.924 C 4.579 28.344,5.067 28.554,5.549 28.428 C 5.768 28.370,6.629 27.524,16.601 17.556 C 22.549 11.611,27.477 6.658,27.553 6.551 C 27.898 6.055,27.722 5.364,27.180 5.083 C 26.984 4.982,26.527 4.972,26.344 5.065 C 26.272 5.101,25.420 5.922,24.449 6.889 L 22.686 8.647 22.181 8.148 C 21.122 7.099,19.796 6.417,18.311 6.158 L 17.768 6.063 17.749 4.431 C 17.735 3.267,17.710 2.754,17.661 2.640 C 17.577 2.443,17.354 2.202,17.163 2.102 C 16.951 1.992,16.435 2.005,16.240 2.126 M17.548 8.056 C 18.506 8.175,19.333 8.473,20.060 8.962 C 20.384 9.180,21.227 9.977,21.227 10.065 C 21.227 10.088,18.836 12.495,15.915 15.413 C 11.284 20.040,10.607 20.696,10.639 20.533 C 10.658 20.431,10.694 18.931,10.718 17.200 C 10.763 13.898,10.784 13.588,11.040 12.588 C 11.708 9.971,13.396 8.372,15.821 8.061 C 16.346 7.993,17.026 7.991,17.548 8.056 M23.546 13.400 L 22.693 14.267 22.724 17.253 C 22.757 20.418,22.764 20.516,23.047 21.627 C 23.205 22.251,23.541 23.075,23.837 23.568 L 24.096 24.000 18.514 24.000 L 12.932 24.000 11.959 24.974 C 11.424 25.509,10.987 25.965,10.987 25.987 C 10.987 26.009,11.383 26.027,11.867 26.027 L 12.747 26.027 12.747 26.285 C 12.747 26.665,12.931 27.328,13.171 27.813 C 13.669 28.820,14.704 29.635,15.819 29.898 C 16.334 30.020,17.196 30.009,17.707 29.876 C 19.152 29.497,20.254 28.384,20.592 26.962 C 20.649 26.726,20.708 26.419,20.724 26.280 L 20.753 26.027 23.750 26.026 C 25.750 26.026,26.818 26.007,26.960 25.968 C 27.404 25.847,27.729 25.443,27.732 25.011 C 27.734 24.735,27.528 24.374,27.253 24.171 C 25.662 22.993,25.162 22.266,24.843 20.667 C 24.814 20.520,24.771 18.972,24.747 17.227 C 24.714 14.795,24.685 13.922,24.620 13.493 C 24.499 12.680,24.470 12.533,24.432 12.533 C 24.414 12.533,24.015 12.923,23.546 13.400 M18.700 26.276 C 18.615 26.900,18.124 27.546,17.526 27.823 C 17.245 27.953,17.134 27.973,16.719 27.973 C 16.283 27.973,16.204 27.957,15.883 27.799 C 15.270 27.497,14.863 26.942,14.748 26.253 L 14.711 26.027 16.723 26.027 L 18.734 26.027 18.700 26.276 " fill="#1A1C1F" stroke="none" fill-rule="evenodd"></path></svg>
